16x16/actions/format-border-set-internal.svg

<svg viewBox="0 0 16 16" xmlns="http://www.w3.org/2000/svg"><path d="m2 1v6h1v-5h5v-1zm7 0v1h5v5h1v-6zm-7 7v6h6v-1h-5v-5zm12 0v5h-5v1h6v-6z" fill="#fcfcfc" transform="translate(-421.714 -531.79)"/><g fill="#8b9cbe"><path d="m8 1v6h-6v1h6v6h1v-6h6v-1h-6v-6z"/><path d="m435.714 533.79v5h-5v-5zm-6 0v5h-5v-5zm6 6v5h-5v-5zm-6 0v5h-5v-5z" fill-opacity=".5" transform="translate(-421.714 -531.79)"/></g></svg>

<svg xmlns="http://www.w3.org/2000/svg" viewBox="0 0 16 16"><defs id="defs3051"><style type="text/css" id="current-color-scheme">.ColorScheme-Text{color:#8b9cbe}</style></defs><path style="fill:currentColor;fill-opacity:1;stroke:none;color:#fcfcfc" d="M2 1v6h1V2h5V1H2zm7 0v1h5v5h1V1H9zM2 8v6h6v-1H3V8H2zm12 0v5H9v1h6V8h-1z" transform="translate(-421.714 -531.79)"/><path style="fill:currentColor;fill-opacity:1;stroke:none" d="M8 1v6H2v1h6v6h1V8h6V7H9V1H8z" class="ColorScheme-Text"/><path style="fill:currentColor;fill-opacity:.5;stroke:none" d="M435.714 533.79v5h-5v-5h5zm-6 0v5h-5v-5h5zm6 6v5h-5v-5h5zm-6 0v5h-5v-5h5z" class="ColorScheme-Text" transform="translate(-421.714 -531.79)"/></svg>
